assets/images/icons/src/meh-o.svg

<?xml version="1.0" encoding="utf-8"?>
<!-- Generated by IcoMoon.io -->
<!DOCTYPE svg PUBLIC "-//W3C//DTD SVG 1.1//EN" "http://www.w3.org/Graphics/SVG/1.1/DTD/svg11.dtd">
<svg version="1.1" xmlns="http://www.w3.org/2000/svg" xmlns:xlink="http://www.w3.org/1999/xlink" width="12" height="14" viewBox="0 0 12 14">
<path fill="#444444" d="M9 8.5q0 0.203-0.148 0.352t-0.352 0.148h-5q-0.203 0-0.352-0.148t-0.148-0.352 0.148-0.352 0.352-0.148h5q0.203 0 0.352 0.148t0.148 0.352zM5 5q0 0.414-0.293 0.707t-0.707 0.293-0.707-0.293-0.293-0.707 0.293-0.707 0.707-0.293 0.707 0.293 0.293 0.707zM9 5q0 0.414-0.293 0.707t-0.707 0.293-0.707-0.293-0.293-0.707 0.293-0.707 0.707-0.293 0.707 0.293 0.293 0.707zM11 7q0-1.016-0.398-1.941t-1.066-1.594-1.594-1.066-1.941-0.398-1.941 0.398-1.594 1.066-1.066 1.594-0.398 1.941 0.398 1.941 1.066 1.594 1.594 1.066 1.941 0.398 1.941-0.398 1.594-1.066 1.066-1.594 0.398-1.941zM12 7q0 1.633-0.805 3.012t-2.184 2.184-3.012 0.805-3.012-0.805-2.184-2.184-0.805-3.012 0.805-3.012 2.184-2.184 3.012-0.805 3.012 0.805 2.184 2.184 0.805 3.012z"></path>
</svg>

<svg xmlns="http://www.w3.org/2000/svg" width="12" height="14" viewBox="0 0 12 14"><path fill="#444" d="M9 8.5q0 .203-.148.352T8.5 9h-5q-.203 0-.352-.148T3 8.5t.148-.352T3.5 8h5q.203 0 .352.148T9 8.5zM5 5q0 .414-.293.707T4 6t-.707-.293T3 5t.293-.707T4 4t.707.293T5 5zm4 0q0 .414-.293.707T8 6t-.707-.293T7 5t.293-.707T8 4t.707.293T9 5zm2 2q0-1.016-.398-1.941T9.536 3.465 7.942 2.399t-1.941-.398-1.941.398-1.594 1.066T1.4 5.059 1.002 7 1.4 8.941t1.066 1.594 1.594 1.066 1.941.398 1.941-.398 1.594-1.066 1.066-1.594T11 7zm1 0q0 1.633-.805 3.012t-2.184 2.184-3.012.805-3.012-.805-2.184-2.184T-.002 7t.805-3.012 2.184-2.184T5.999.999t3.012.805 2.184 2.184T12 7z"/></svg>
